X:239
T: LETZTE ROSE WIE MAGST DU SO EINSAM VERBLUEHN
N: B0726
O: Europa, Mitteleuropa, Deutschland; Irland
R: Jahreszeiten - Lied, Herbst
M: 3/4
L: 1/16
K: F
F3G | A4f4d3c | c4A2z2
F3G | A2c4A2G3F | F8
F3G | A4f4d3c | c4A2z2
F3G | A2c4A2G3F | F8
c3A | f6e2d3c | c4A2z2
c3A | f6e2d2^c2 | d2def4
F3G | A4f3ed3c | c4A2z2
F3G | A2c4A2G3F | F4z4

